exported-svg/tag.svg

<svg height="24" viewBox="0 0 24 24" width="24" xmlns="http://www.w3.org/2000/svg"><path d="m7 8c-.55228475 0-1-.44771525-1-1s.44771525-1 1-1 1 .44771525 1 1-.44771525 1-1 1zm14.4446037 6.2625-7.1708537 7.1708567c-.4689206.4694426-1.1052269.7332166-1.76875.7332166s-1.2998294-.263774-1.7683474-.7328141l-8.59000002-8.58c-.09389418-.0937848-.14665258-.22105-.14665258-.3537592v-10c0-.27614237.22385763-.5.5-.5h10c.1326082 0 .2597852.05267842.3535534.14644661l8.5910503 8.59105339c.9693089.9750936.9693089 2.5499064 0 3.525zm-18.4446037-1.9697774 8.44375 8.4339207c.2813524.2816656.6631361.43993 1.06125.43993s.7798976-.1582644 1.0614466-.4401267l7.17-7.17c.5805351-.5840028.5805351-1.5288904 0-2.1128932l-8.4435534-8.4435534h-9.2928932z" fill-rule="evenodd"/></svg>

<?xml version="1.0" encoding="UTF-8"?>
<svg width="24px" height="24px" viewBox="0 0 24 24" version="1.1" xmlns="http://www.w3.org/2000/svg" xmlns:xlink="http://www.w3.org/1999/xlink">
    <!-- Generator: Sketch 55.2 (78181) - https://sketchapp.com -->
    <title>tag</title>
    <desc>Created with Sketch.</desc>
    <g id="tag" stroke="none" stroke-width="1" fill="none" fill-rule="evenodd">
        <path d="M7,8 C6.44771525,8 6,7.55228475 6,7 C6,6.44771525 6.44771525,6 7,6 C7.55228475,6 8,6.44771525 8,7 C8,7.55228475 7.55228475,8 7,8 Z M21.4446037,14.2625 L14.27375,21.4333567 C13.8048294,21.9027993 13.1685231,22.1665733 12.505,22.1665733 C11.8414769,22.1665733 11.2051706,21.9027993 10.7366526,21.4337592 L2.14665258,12.8537592 C2.0527584,12.7599744 2,12.6327092 2,12.5 L2,2.5 C2,2.22385763 2.22385763,2 2.5,2 L12.5,2 C12.6326082,2 12.7597852,2.05267842 12.8535534,2.14644661 L21.4446037,10.7375 C22.4139126,11.7125936 22.4139126,13.2874064 21.4446037,14.2625 Z M3,12.2927226 L11.44375,20.7266433 C11.7251024,21.0083089 12.1068861,21.1665733 12.505,21.1665733 C12.9031139,21.1665733 13.2848976,21.0083089 13.5664466,20.7264466 L20.7364466,13.5564466 C21.3169817,12.9724438 21.3169817,12.0275562 20.7364466,11.4435534 L12.2928932,3 L3,3 L3,12.2927226 Z" id="Combined-Shape" fill="#000000"></path>
    </g>
</svg>
